X:5
T:De Amsterdamse grachten
M:3/4
L:1/8
K:F
z2 Ad "Dm"ef|(3efe dAa2|"Bm"z2 Ad ef|"Dm" e4 (3ded|A4A2|"Gm" B2c2B2|"A7" z6|z2z2A2|
"Dm" d4d2| e2d2c2| A4A2|"Gm" G2F2G2| "Dm" A2 d'ad'a|d'2 d'ad'a|d'2 d'ad'a|=b4A2|"Dm"[d4z2][A4d2]|"C"[z2c2][d2A4]c2|
"F"A4A2|"A7" G2F2E2|"Dm" D6|"Gm" z2[D2E2][D2E2G2]|"Dm"z2[D2F2][D2F2A2]|"A7" z2[C2^C2][C2A2]|"Dm"d4d2|"Am"e2d2c2|"Dm" A4A2|
"Gm"{GA}G2F2G2|"Dm"[F6A6]c'ac'a|
